X:1
T:Title
L:1/8
Q:1/4=100
M:4/4
K:F
V:1 treble nm="Grand Piano"
V:1
 D A2 A AAAA | G B2 A G4 | E G2 G G2 GF | E A2 G F4 | D A2 A AAAA | G B2 A G4 | E G2 G G2 GF | %7
w: ????~????~???? * * * * * *|||||||
 E A2 G F3 A | dddd c2 c2 | B B2 B A3 A | dddd c2 c2 | B B2 B A4 | D2 A2 A2 A2 | GBBB B2 A2 | %14
w: |||||||
 D A2 A A4 | GBBc A4 | D2 A2 A2 A2 | GBBB B2 A2 | D A2 A A4 | GBBc A4 | z Adc cBBA | G8- | %22
w: ||||||||
 G2 BA AGGF | F8 | z FAG GFFE | E8- | E2 EF FE^CE | D8 | z Adc cBBA | G8- | G2 BA AGGF | F8 | %32
w: ||||||||||
 z FAG GFFE | E8- | E2 EF FE^CE | D8 |] %36
w: ||||

